src/icons/icons_set_04/030-etoile-contour.svg

<svg height="50" viewBox="0 0 50 50" width="50" xmlns="http://www.w3.org/2000/svg"><path d="m40.7899085 14.3295697-13.3606804-1.927959c.9627292.1375328.4125982 0-.2750655-1.3778279l-2.0654916-4.27101671-3.0307215-6.05894226c-.1743592-.44873804-.6229494-.72948837-1.1027625-.69016429h-.2750654c-.4577171.03577871-.8688222.2936537-1.1002619.69016429l-5.7863774 12.12038507c.4125982-.9627291 0-.4125982-1.377828-.1375327l-4.68361488.6876637-6.74910655.8201952c-.6760546.2484564-1.08016553.9422677-.96272917 1.6528935.00412435.2154527.10517792.4175598.27506548.5501309l9.22719643 8.952131c.02263756.4635526-.02371255.9278964-.13753274 1.377828l-.82769703 4.6836149-1.1002619 6.7516071c-.14003333.6876637.27506548 1.5153607.96272917 1.6528934.27506547.1375328.68766369 0 .96272916-.1375327l11.29518873-5.9239101c.481197.1228275.9443626.3077575 1.3778279.5501309l4.1309834 2.205525 6.0614428 3.1682542c.3272557.1889387.7171495.2370669 1.0805267.1333795.3633773-.1036874.6691618-.3503231.8474323-.6835104.1400333-.2775661.277566-.6901643.1400333-.9652298l-2.0654917-12.3904494c.2873784-.3955644.6095726-.7646233.9627292-1.1027625l8.1269345-8.1269345c.2633952-.251489.4124122-.5998041.4124122-.9639795s-.149017-.7124904-.4124122-.9639795c-.1318621-.1707516-.3344123-.2720268-.5501309-.2750654z" fill="none" stroke="#000" stroke-linejoin="round" stroke-width="8" transform="translate(4 5)"/></svg>

<?xml version="1.0" encoding="UTF-8"?>
<svg width="50px" height="50px" viewBox="0 0 50 50" version="1.1" xmlns="http://www.w3.org/2000/svg" xmlns:xlink="http://www.w3.org/1999/xlink">
    <!-- Generator: Sketch 52.2 (67145) - http://www.bohemiancoding.com/sketch -->
    <title>030-etoile-contour</title>
    <desc>Created with Sketch.</desc>
    <g id="030-etoile-contour" stroke="none" stroke-width="1" fill="none" fill-rule="evenodd" stroke-linejoin="round">
        <g id="Group" transform="translate(4.000000, 5.000000)" fill-rule="nonzero" stroke="#000000" stroke-width="8">
            <g id="088-etoile-pleine">
                <g id="ICONSET-01">
                    <g id="088-etoile-pleine">
                        <path d="M40.7899085,14.3295697 L27.4292281,12.4016107 C28.3919573,12.5391435 27.8418263,12.4016107 27.1541626,11.0237828 L25.088671,6.75276609 L22.0579495,0.69382383 C21.8835903,0.24508579 21.4350001,-0.0356645375 20.955187,0.00365954388 L20.6801216,0.00365954388 C20.2224045,0.0394382528 19.8112994,0.29731324 19.5798597,0.69382383 L13.7934823,12.8142089 C14.2060805,11.8514798 13.7934823,12.4016107 12.4156543,12.6766762 L7.73203942,13.3643399 L0.982932869,14.1845351 C0.306878271,14.4329915 -0.0972326615,15.1268028 0.0202037018,15.8374286 C0.0243280463,16.0528813 0.125381618,16.2549884 0.295269178,16.3875595 L9.52246561,25.3396905 C9.54510317,25.8032431 9.49875306,26.2675869 9.38493287,26.7175185 L8.55723584,31.4011334 L7.45697394,38.1527405 C7.31694061,38.8404042 7.73203942,39.6681012 8.41970311,39.8056339 C8.69476858,39.9431667 9.1073668,39.8056339 9.38243227,39.6681012 L20.677621,33.7441911 C21.158818,33.8670186 21.6219836,34.0519486 22.0554489,34.294322 L26.1864323,36.499847 L32.2478751,39.6681012 C32.5751308,39.8570399 32.9650246,39.9051681 33.3284018,39.8014807 C33.6917791,39.6977933 33.9975636,39.4511576 34.1758341,39.1179703 C34.3158674,38.8404042 34.4534001,38.427806 34.3158674,38.1527405 L32.2503757,25.7622911 C32.5377541,25.3667267 32.8599483,24.9976678 33.2131049,24.6595286 L41.3400394,16.5325941 C41.6034346,16.2811051 41.7524516,15.93279 41.7524516,15.5686146 C41.7524516,15.2044392 41.6034346,14.8561242 41.3400394,14.6046351 C41.2081773,14.4338835 41.0056271,14.3326083 40.7899085,14.3295697 Z" id="Shape"></path>
                    </g>
                </g>
            </g>
        </g>
    </g>
</svg>
